X: 103
T:Earl's Chair
M:C
L:1/8
K:D
A| B3 B BAFA| BddA BAFB | A ~F3 DFAF| AddA BAFA| 
B3 B BAFA| BddA BAFB | AFAB defd| edef d3 :|
| f | e3 f d3 f | edef  dB A2 | edef d3 e | fedB ADFf | 
edef e ~B3 | g ~B3 defg | afbf af eg| fedB AD F :|
